the-plus-addons-for-block-editor/assets/images/dynamic-category/1.svg

<svg xmlns="http://www.w3.org/2000/svg" width="1000" height="700" fill="none" viewBox="0 0 1000 700"><path fill="#fff" d="M0 0h1000v700H0z"/><path fill="#A6A6A6" d="M80 113h260v177H80z"/><path fill="#000" d="M101.256 137.122v-2.031h14.182v2.031h-5.947V154h-2.289v-16.878h-5.946Zm21.309 17.173c-1.366 0-2.545-.301-3.536-.904-.985-.61-1.745-1.459-2.28-2.549-.53-1.095-.794-2.369-.794-3.822 0-1.453.264-2.733.794-3.841.535-1.114 1.28-1.982 2.234-2.604.96-.628 2.08-.941 3.361-.941.738 0 1.468.123 2.188.369.72.246 1.376.646 1.967 1.2.59.548 1.061 1.274 1.412 2.179.351.905.527 2.019.527 3.342v.924h-10.932v-1.884h8.716c0-.8-.16-1.514-.481-2.142a3.607 3.607 0 0 0-1.348-1.486c-.578-.364-1.261-.545-2.049-.545-.868 0-1.619.215-2.253.646a4.259 4.259 0 0 0-1.45 1.662 4.89 4.89 0 0 0-.507 2.198v1.255c0 1.071.184 1.979.554 2.724.375.739.895 1.302 1.56 1.69.665.381 1.437.572 2.317.572.573 0 1.09-.08 1.551-.24a3.312 3.312 0 0 0 1.21-.739c.339-.332.6-.744.785-1.237l2.105.591a4.678 4.678 0 0 1-1.117 1.884c-.523.535-1.17.954-1.939 1.255-.77.296-1.634.443-2.595.443Zm10.431-14.477 3.398 5.798 3.398-5.798h2.511l-4.579 7.091 4.579 7.091h-2.511l-3.398-5.503-3.398 5.503h-2.511l4.506-7.091-4.506-7.091h2.511Zm18.584 0v1.847h-7.35v-1.847h7.35Zm-5.207-3.398h2.178v13.518c0 .615.09 1.077.268 1.384.185.302.419.505.702.61.289.098.594.148.914.148.24 0 .437-.013.591-.037l.369-.074.443 1.957a4.288 4.288 0 0 1-.618.166c-.265.062-.6.093-1.007.093a4.396 4.396 0 0 1-1.809-.397 3.596 3.596 0 0 1-1.459-1.21c-.382-.542-.572-1.225-.572-2.05V136.42Z"/><rect width="24" height="24" x="163" y="133" fill="#D9D9D9" rx="12"/><path fill="#000" d="M176.046 139.818V150h-1.844v-8.387h-.06l-2.381 1.521v-1.69l2.53-1.626h1.755Z"/><path fill="#A6A6A6" d="M370 113h260v224H370z"/><path fill="#000" d="M391.256 137.122v-2.031h14.182v2.031h-5.947V154h-2.289v-16.878h-5.946Zm21.309 17.173c-1.366 0-2.545-.301-3.536-.904-.985-.61-1.745-1.459-2.28-2.549-.53-1.095-.794-2.369-.794-3.822 0-1.453.264-2.733.794-3.841.535-1.114 1.28-1.982 2.234-2.604.96-.628 2.08-.941 3.361-.941.738 0 1.468.123 2.188.369.72.246 1.376.646 1.967 1.2.59.548 1.061 1.274 1.412 2.179.351.905.527 2.019.527 3.342v.924h-10.932v-1.884h8.716c0-.8-.16-1.514-.481-2.142a3.607 3.607 0 0 0-1.348-1.486c-.578-.364-1.261-.545-2.049-.545-.868 0-1.619.215-2.253.646a4.259 4.259 0 0 0-1.45 1.662 4.89 4.89 0 0 0-.507 2.198v1.255c0 1.071.184 1.979.554 2.724.375.739.895 1.302 1.56 1.69.665.381 1.437.572 2.317.572.573 0 1.09-.08 1.551-.24a3.312 3.312 0 0 0 1.21-.739c.339-.332.6-.744.785-1.237l2.105.591a4.678 4.678 0 0 1-1.117 1.884c-.523.535-1.17.954-1.939 1.255-.77.296-1.634.443-2.595.443Zm10.431-14.477 3.398 5.798 3.398-5.798h2.511l-4.579 7.091 4.579 7.091h-2.511l-3.398-5.503-3.398 5.503h-2.511l4.506-7.091-4.506-7.091h2.511Zm18.584 0v1.847h-7.35v-1.847h7.35Zm-5.207-3.398h2.178v13.518c0 .615.09 1.077.268 1.384.185.302.419.505.702.61.289.098.594.148.914.148.24 0 .437-.013.591-.037l.369-.074.443 1.957a4.288 4.288 0 0 1-.618.166c-.265.062-.6.093-1.007.093a4.396 4.396 0 0 1-1.809-.397 3.596 3.596 0 0 1-1.459-1.21c-.382-.542-.572-1.225-.572-2.05V136.42Z"/><rect width="24" height="24" x="453" y="133" fill="#D9D9D9" rx="12"/><path fill="#000" d="M466.046 139.818V150h-1.844v-8.387h-.06l-2.381 1.521v-1.69l2.53-1.626h1.755Z"/><path fill="#A6A6A6" d="M660 113h260v256H660z"/><path fill="#000" d="M681.256 137.122v-2.031h14.182v2.031h-5.947V154h-2.289v-16.878h-5.946Zm21.309 17.173c-1.366 0-2.545-.301-3.536-.904-.985-.61-1.745-1.459-2.28-2.549-.53-1.095-.794-2.369-.794-3.822 0-1.453.264-2.733.794-3.841.535-1.114 1.28-1.982 2.234-2.604.96-.628 2.08-.941 3.361-.941.738 0 1.468.123 2.188.369.72.246 1.376.646 1.967 1.2.59.548 1.061 1.274 1.412 2.179.351.905.527 2.019.527 3.342v.924h-10.932v-1.884h8.716c0-.8-.16-1.514-.481-2.142a3.607 3.607 0 0 0-1.348-1.486c-.578-.364-1.261-.545-2.049-.545-.868 0-1.619.215-2.253.646a4.259 4.259 0 0 0-1.45 1.662 4.89 4.89 0 0 0-.507 2.198v1.255c0 1.071.184 1.979.554 2.724.375.739.895 1.302 1.56 1.69.665.381 1.437.572 2.317.572.573 0 1.09-.08 1.551-.24a3.312 3.312 0 0 0 1.21-.739c.339-.332.6-.744.785-1.237l2.105.591a4.678 4.678 0 0 1-1.117 1.884c-.523.535-1.17.954-1.939 1.255-.77.296-1.634.443-2.595.443Zm10.431-14.477 3.398 5.798 3.398-5.798h2.511l-4.579 7.091 4.579 7.091h-2.511l-3.398-5.503-3.398 5.503h-2.511l4.506-7.091-4.506-7.091h2.511Zm18.584 0v1.847h-7.35v-1.847h7.35Zm-5.207-3.398h2.178v13.518c0 .615.09 1.077.268 1.384.185.302.419.505.702.61.289.098.594.148.914.148.24 0 .437-.013.591-.037l.369-.074.443 1.957a4.288 4.288 0 0 1-.618.166c-.265.062-.6.093-1.007.093a4.396 4.396 0 0 1-1.809-.397 3.596 3.596 0 0 1-1.459-1.21c-.382-.542-.572-1.225-.572-2.05V136.42Z"/><rect width="24" height="24" x="743" y="133" fill="#D9D9D9" rx="12"/><path fill="#000" d="M756.046 139.818V150h-1.844v-8.387h-.06l-2.381 1.521v-1.69l2.53-1.626h1.755Z"/></svg>

<svg width="1000" height="700" viewBox="0 0 1000 700" fill="none" xmlns="http://www.w3.org/2000/svg">
<rect width="1000" height="700" fill="white"/>
<rect width="260" height="177" transform="translate(80 113)" fill="#A6A6A6"/>
<path d="M101.256 137.122V135.091H115.438V137.122H109.491V154H107.202V137.122H101.256ZM122.565 154.295C121.199 154.295 120.02 153.994 119.029 153.391C118.044 152.781 117.284 151.932 116.749 150.842C116.219 149.747 115.955 148.473 115.955 147.02C115.955 145.567 116.219 144.287 116.749 143.179C117.284 142.065 118.029 141.197 118.983 140.575C119.943 139.947 121.063 139.634 122.344 139.634C123.082 139.634 123.812 139.757 124.532 140.003C125.252 140.249 125.908 140.649 126.499 141.203C127.089 141.751 127.56 142.477 127.911 143.382C128.262 144.287 128.438 145.401 128.438 146.724V147.648H117.506V145.764H126.222C126.222 144.964 126.062 144.25 125.741 143.622C125.428 142.994 124.978 142.499 124.393 142.136C123.815 141.772 123.132 141.591 122.344 141.591C121.476 141.591 120.725 141.806 120.091 142.237C119.463 142.662 118.98 143.216 118.641 143.899C118.303 144.582 118.134 145.315 118.134 146.097V147.352C118.134 148.423 118.318 149.331 118.688 150.076C119.063 150.815 119.583 151.378 120.248 151.766C120.913 152.147 121.685 152.338 122.565 152.338C123.138 152.338 123.655 152.258 124.116 152.098C124.584 151.932 124.987 151.686 125.326 151.359C125.665 151.027 125.926 150.615 126.111 150.122L128.216 150.713C127.994 151.427 127.622 152.055 127.099 152.597C126.576 153.132 125.929 153.551 125.16 153.852C124.39 154.148 123.526 154.295 122.565 154.295ZM132.996 139.818L136.394 145.616L139.792 139.818H142.303L137.724 146.909L142.303 154H139.792L136.394 148.497L132.996 154H130.485L134.991 146.909L130.485 139.818H132.996ZM151.58 139.818V141.665H144.23V139.818H151.58ZM146.373 136.42H148.551V149.938C148.551 150.553 148.641 151.015 148.819 151.322C149.004 151.624 149.238 151.827 149.521 151.932C149.81 152.03 150.115 152.08 150.435 152.08C150.675 152.08 150.872 152.067 151.026 152.043C151.18 152.012 151.303 151.987 151.395 151.969L151.838 153.926C151.691 153.982 151.484 154.037 151.22 154.092C150.955 154.154 150.62 154.185 150.213 154.185C149.598 154.185 148.995 154.052 148.404 153.788C147.819 153.523 147.333 153.12 146.945 152.578C146.563 152.036 146.373 151.353 146.373 150.528V136.42Z" fill="black"/>
<rect x="163" y="133" width="24" height="24" rx="12" fill="#D9D9D9"/>
<path d="M176.046 139.818V150H174.202V141.613H174.142L171.761 143.134V141.444L174.291 139.818H176.046Z" fill="black"/>
<rect width="260" height="224" transform="translate(370 113)" fill="#A6A6A6"/>
<path d="M391.256 137.122V135.091H405.438V137.122H399.491V154H397.202V137.122H391.256ZM412.565 154.295C411.199 154.295 410.02 153.994 409.029 153.391C408.044 152.781 407.284 151.932 406.749 150.842C406.219 149.747 405.955 148.473 405.955 147.02C405.955 145.567 406.219 144.287 406.749 143.179C407.284 142.065 408.029 141.197 408.983 140.575C409.943 139.947 411.063 139.634 412.344 139.634C413.082 139.634 413.812 139.757 414.532 140.003C415.252 140.249 415.908 140.649 416.499 141.203C417.089 141.751 417.56 142.477 417.911 143.382C418.262 144.287 418.438 145.401 418.438 146.724V147.648H407.506V145.764H416.222C416.222 144.964 416.062 144.25 415.741 143.622C415.428 142.994 414.978 142.499 414.393 142.136C413.815 141.772 413.132 141.591 412.344 141.591C411.476 141.591 410.725 141.806 410.091 142.237C409.463 142.662 408.98 143.216 408.641 143.899C408.303 144.582 408.134 145.315 408.134 146.097V147.352C408.134 148.423 408.318 149.331 408.688 150.076C409.063 150.815 409.583 151.378 410.248 151.766C410.913 152.147 411.685 152.338 412.565 152.338C413.138 152.338 413.655 152.258 414.116 152.098C414.584 151.932 414.987 151.686 415.326 151.359C415.665 151.027 415.926 150.615 416.111 150.122L418.216 150.713C417.994 151.427 417.622 152.055 417.099 152.597C416.576 153.132 415.929 153.551 415.16 153.852C414.39 154.148 413.526 154.295 412.565 154.295ZM422.996 139.818L426.394 145.616L429.792 139.818H432.303L427.724 146.909L432.303 154H429.792L426.394 148.497L422.996 154H420.485L424.991 146.909L420.485 139.818H422.996ZM441.58 139.818V141.665H434.23V139.818H441.58ZM436.373 136.42H438.551V149.938C438.551 150.553 438.641 151.015 438.819 151.322C439.004 151.624 439.238 151.827 439.521 151.932C439.81 152.03 440.115 152.08 440.435 152.08C440.675 152.08 440.872 152.067 441.026 152.043C441.18 152.012 441.303 151.987 441.395 151.969L441.838 153.926C441.691 153.982 441.484 154.037 441.22 154.092C440.955 154.154 440.62 154.185 440.213 154.185C439.598 154.185 438.995 154.052 438.404 153.788C437.819 153.523 437.333 153.12 436.945 152.578C436.563 152.036 436.373 151.353 436.373 150.528V136.42Z" fill="black"/>
<rect x="453" y="133" width="24" height="24" rx="12" fill="#D9D9D9"/>
<path d="M466.046 139.818V150H464.202V141.613H464.142L461.761 143.134V141.444L464.291 139.818H466.046Z" fill="black"/>
<rect width="260" height="256" transform="translate(660 113)" fill="#A6A6A6"/>
<path d="M681.256 137.122V135.091H695.438V137.122H689.491V154H687.202V137.122H681.256ZM702.565 154.295C701.199 154.295 700.02 153.994 699.029 153.391C698.044 152.781 697.284 151.932 696.749 150.842C696.219 149.747 695.955 148.473 695.955 147.02C695.955 145.567 696.219 144.287 696.749 143.179C697.284 142.065 698.029 141.197 698.983 140.575C699.943 139.947 701.063 139.634 702.344 139.634C703.082 139.634 703.812 139.757 704.532 140.003C705.252 140.249 705.908 140.649 706.499 141.203C707.089 141.751 707.56 142.477 707.911 143.382C708.262 144.287 708.438 145.401 708.438 146.724V147.648H697.506V145.764H706.222C706.222 144.964 706.062 144.25 705.741 143.622C705.428 142.994 704.978 142.499 704.393 142.136C703.815 141.772 703.132 141.591 702.344 141.591C701.476 141.591 700.725 141.806 700.091 142.237C699.463 142.662 698.98 143.216 698.641 143.899C698.303 144.582 698.134 145.315 698.134 146.097V147.352C698.134 148.423 698.318 149.331 698.688 150.076C699.063 150.815 699.583 151.378 700.248 151.766C700.913 152.147 701.685 152.338 702.565 152.338C703.138 152.338 703.655 152.258 704.116 152.098C704.584 151.932 704.987 151.686 705.326 151.359C705.665 151.027 705.926 150.615 706.111 150.122L708.216 150.713C707.994 151.427 707.622 152.055 707.099 152.597C706.576 153.132 705.929 153.551 705.16 153.852C704.39 154.148 703.526 154.295 702.565 154.295ZM712.996 139.818L716.394 145.616L719.792 139.818H722.303L717.724 146.909L722.303 154H719.792L716.394 148.497L712.996 154H710.485L714.991 146.909L710.485 139.818H712.996ZM731.58 139.818V141.665H724.23V139.818H731.58ZM726.373 136.42H728.551V149.938C728.551 150.553 728.641 151.015 728.819 151.322C729.004 151.624 729.238 151.827 729.521 151.932C729.81 152.03 730.115 152.08 730.435 152.08C730.675 152.08 730.872 152.067 731.026 152.043C731.18 152.012 731.303 151.987 731.395 151.969L731.838 153.926C731.691 153.982 731.484 154.037 731.22 154.092C730.955 154.154 730.62 154.185 730.213 154.185C729.598 154.185 728.995 154.052 728.404 153.788C727.819 153.523 727.333 153.12 726.945 152.578C726.563 152.036 726.373 151.353 726.373 150.528V136.42Z" fill="black"/>
<rect x="743" y="133" width="24" height="24" rx="12" fill="#D9D9D9"/>
<path d="M756.046 139.818V150H754.202V141.613H754.142L751.761 143.134V141.444L754.291 139.818H756.046Z" fill="black"/>
</svg>
